X:14
T:Billy Brocker's
R:reel
M:4/4
L:1/8
K:Dmaj
dB|:AF~F2 A2dB|AF~F2 G3B|AF~F2 ABdf|efge fddB:|
|:~f3a g2fg|eA(3cBA eA(3cBA|~f3a g2fg|afge fdd2|
~f3a g2fg|eA(3cBA eA(3cBA|~f3a g2fg|afge fdd2:|

